X: 1
T:Jessie Kislin's Whistle
M:6/8
L:1/8
C:David de la Barre
R:jig
N:Written for Jessie Kislin in honor of her creation of the silver
N:Copeland whistle pendant ( not to mention her generous nature and kind
N:disposition :-)
N:
N:Copyright  2001
N:by David de la Barre
N:All rights reserved
K:G
D| ~G3 AGA| Bge dBG| AGA BGD| EGF EDE|
~G3 AGA| Bge dBG| AGA BGD| EGF G2:|
A| ~B3 dBG| edc dBG| EcB AGA| BAB GED|
~B3 dBG| edc dBG| EcB AGA| BGF G2:|
% Output from ABC2Win  Version 2.1 i on 7/15/2001
